svgs/thin/signal-bars-slash.svg

<svg xmlns="http://www.w3.org/2000/svg" viewBox="0 0 640 512"><!--! Font Awesome Pro 6.3.0 by @fontawesome - https://fontawesome.com License - https://fontawesome.com/license (Commercial License) Copyright 2023 Fonticons, Inc. --><path d="M432 480c0 8.822-7.178 16-16 16h-32c-8.822 0-16-7.178-16-16v-93.87L352 373.4L352 480c0 17.62 14.38 32 32 32h32c17.62 0 32-14.38 32-32L448 449.7l-16-12.72V480zM636.1 497.7L12.99 1.73C11.53 .5664 9.773 0 8.027 0C5.676 0 3.336 1.029 1.738 3.012c-2.75 3.469-2.172 8.5 1.281 11.25l623.1 496C628.5 511.4 630.2 512 631.1 512c2.344 0 4.688-1.031 6.266-3.016C641 505.5 640.4 500.5 636.1 497.7zM528 32c0-8.822 7.178-16 16-16h32c8.822 0 16 7.178 16 16v348.2l16 12.72L608 32c0-17.62-14.38-32-32-32h-32c-17.62 0-32 14.38-32 32L512 316.6l16 12.72V32zM368 160c0-8.822 7.178-16 16-16h32c8.822 0 16 7.178 16 16v93.04L448 265.8L448 160c0-17.62-14.38-32-32-32h-32c-17.62 0-32 14.38-32 32L352 189.5l16 12.72V160zM272 480c0 8.822-7.178 16-16 16H224c-8.822 0-16-7.178-16-16V288c0-8.822 7.178-16 16-16h.4141L209.3 260C199.2 265.4 192 275.7 192 288v192c0 17.62 14.37 32 31.1 32h32c17.62 0 32-14.38 32-32L288 322.6L272 309.8V480zM96 384H64c-17.62 0-32 14.38-32 32v64c0 17.62 14.38 32 32 32H96c17.62 0 32-14.38 32-32v-64C128 398.4 113.6 384 96 384zM112 480c0 8.822-7.178 16-16 16h-32c-8.822 0-16-7.178-16-16v-64c0-8.822 7.178-16 16-16h32c8.822 0 16 7.178 16 16V480z"/></svg>

<svg xmlns="http://www.w3.org/2000/svg" viewBox="0 0 640 512"><!-- Font Awesome Pro 6.0.0-alpha2 by @fontawesome - https://fontawesome.com License - https://fontawesome.com/license (Commercial License) --><path d="M431.999 480C431.999 488.822 424.822 496 415.999 496H383.999C375.177 496 367.999 488.822 367.999 480V386.135L351.999 373.416V480C351.999 497.625 366.374 512 383.999 512H415.999C433.624 512 447.999 497.625 447.999 480V449.727L431.999 437.008V480ZM636.982 497.734L12.99 1.73C11.527 0.566 9.773 0 8.027 0H8.025C5.673 0 3.335 1.029 1.738 3.012C-1.012 6.48 -0.434 11.512 3.019 14.262L627.011 510.266C628.497 511.438 630.247 512 631.997 512C634.341 512 636.685 510.969 638.263 508.984C641.013 505.516 640.435 500.484 636.982 497.734ZM527.999 32C527.999 23.178 535.177 16 543.999 16H575.999C584.822 16 591.999 23.178 591.999 32V380.223L607.999 392.941V32C607.999 14.375 593.624 0 575.999 0H543.999C526.374 0 511.999 14.375 511.999 32V316.633L527.999 329.35V32ZM367.999 160C367.999 151.178 375.177 144 383.999 144H415.999C424.822 144 431.999 151.178 431.999 160V253.041L447.999 265.76V160C447.999 142.375 433.624 128 415.999 128H383.999C366.374 128 351.999 142.375 351.999 160V189.451L367.999 202.168V160ZM271.999 480C271.999 488.822 264.822 496 255.999 496H223.999C215.177 496 207.999 488.822 207.999 480V288C207.999 279.178 215.177 272 223.999 272H224.413L209.343 260.021C199.179 265.393 192.001 275.742 192.001 288V480C192.001 497.625 206.374 512 223.999 512H255.999C273.624 512 287.999 497.625 287.999 480V322.543L271.999 309.826V480ZM96.001 384H64.001C46.376 384 32.001 398.375 32.001 416V480C32.001 497.625 46.376 512 64.001 512H96.001C113.626 512 128.001 497.625 128.001 480V416C128.001 398.375 113.626 384 96.001 384ZM112.001 480C112.001 488.822 104.824 496 96.001 496H64.001C55.179 496 48.001 488.822 48.001 480V416C48.001 407.178 55.179 400 64.001 400H96.001C104.824 400 112.001 407.178 112.001 416V480Z"/></svg>
